assets/svg/logos/logo-short-white.svg

<?xml version="1.0" encoding="utf-8"?>
<!-- Generator: Adobe Illustrator 22.1.0, SVG Export Plug-In . SVG Version: 6.00 Build 0)  -->
<svg xmlns="http://www.w3.org/2000/svg" xmlns:xlink="http://www.w3.org/1999/xlink" x="0px" y="0px" width="46px" height="46.1px"
     viewBox="0 0 46 46.1" style="enable-background:new 0 0 46 46.1;" xml:space="preserve">
<style type="text/css">
	.logo-short-white-0{fill:#E1E4EA;}
	.logo-short-white-1{fill:#FFFFFF;}
	.logo-short-white-2{fill:#377dff;}
</style>
    <g>
	<path class="logo-short-white-0" opacity=".65" d="M23,41.1L23,41.1c-9.9,0-18-8-18-18l0,0c0-9.9,8-18,18-18h11.3c3.7,0,6.6,3,6.6,6.6v11.4
		C41,33,32.9,41.1,23,41.1z"/>
        <path class="logo-short-white-1" opacity=".5" d="M28,36L28,36c-9.9,0-18-8-18-18l0,0c0-9.9,8-18,18-18h11.3C43,0.1,46,3.1,46,6.7v11.4C46,28,38,36,28,36z"/>
        <path class="logo-short-white-1" opacity=".7" d="M18,46.1L18,46.1c-10,0-18-8-18-18l0,0c0-9.9,8-18,18-18h11.3c3.7,0,6.6,3,6.6,6.6v11.4
		C35.9,38.1,27.9,46.1,18,46.1z"/>
        <g>
		<path class="logo-short-white-2" d="M17.4,34.1V18.4h10.2v2.9h-6.4v3.4H26v2.9h-4.8v6.5H17.4z"/>
	</g>
</g>
</svg>

<svg width="46" height="47" viewBox="0 0 46 47" fill="none" xmlns="http://www.w3.org/2000/svg">
<g clip-path="url(#clip0)">
<path opacity="0.65" d="M23 41.1C13.1 41.1 5 33.1 5 23.1C5 13.2 13 5.09998 23 5.09998H34.3C38 5.09998 40.9 8.09998 40.9 11.7V23.1C41 33 32.9 41.1 23 41.1Z" fill="#E1E4EA"/>
<path opacity="0.5" d="M28 36C18.1 36 10 28 10 18C10 8.1 18 0 28 0H39.3C43 0.1 46 3.1 46 6.7V18.1C46 28 38 36 28 36Z" fill="white"/>
<path opacity="0.7" d="M18 46.1C8 46.1 0 38.1 0 28.1C0 18.2 8 10.1 18 10.1H29.3C33 10.1 35.9 13.1 35.9 16.7V28.1C35.9 38.1 27.9 46.1 18 46.1Z" fill="white"/>
<path d="M17.3999 34.1V18.4H27.5999V21.3H21.1999V24.7H25.9999V27.6H21.1999V34.1H17.3999V34.1Z" fill="#377dff"/>
</g>
<defs>
<clipPath id="clip0">
<rect width="46" height="46.1" fill="white"/>
</clipPath>
</defs>
</svg>
